assets/images/document-plus.svg

<svg xmlns="http://www.w3.org/2000/svg" width="20" height="20" viewBox="0 0 20 20" style="enable-background:new 0 0 20 20"><path d="M4 0C2.89543 0 2 0.895431 2 2V18C2 19.1046 2.89543 20 4 20H12.6707C12.5602 19.6872 12.5 19.3506 12.5 19V18.5H12C10.3431 18.5 9 17.1569 9 15.5C9 13.8431 10.3431 12.5 12 12.5H12.5V12C12.5 10.3431 13.8431 9 15.5 9C16.5435 9 17.4625 9.53275 18 10.3411V7.5C18 7.22386 17.7761 7 17.5 7H11.5C11.2239 7 11 6.77614 11 6.5V0.5C11 0.223858 10.7761 0 10.5 0H4Z"/><path d="M13 0L18 5H13.5C13.2239 5 13 4.77614 13 4.5V0Z"/><path d="M15.5 11C16.0523 11 16.5 11.4477 16.5 12V14.5H19C19.5523 14.5 20 14.9477 20 15.5C20 16.0523 19.5523 16.5 19 16.5H16.5V19C16.5 19.5523 16.0523 20 15.5 20C14.9477 20 14.5 19.5523 14.5 19V16.5H12C11.4477 16.5 11 16.0523 11 15.5C11 14.9477 11.4477 14.5 12 14.5H14.5V12C14.5 11.4477 14.9477 11 15.5 11Z"/></svg>

<svg xmlns="http://www.w3.org/2000/svg" width="20" height="20" viewBox="0 0 20 20"><path d="M4 0a2 2 0 0 0-2 2v16a2 2 0 0 0 2 2h8.67c-.11-.313-.17-.65-.17-1v-.5H12a3 3 0 1 1 0-6h.5V12a3 3 0 0 1 5.5-1.659V7.5a.5.5 0 0 0-.5-.5h-6a.5.5 0 0 1-.5-.5v-6a.5.5 0 0 0-.5-.5z"/><path d="m13 0 5 5h-4.5a.5.5 0 0 1-.5-.5zM15.5 11a1 1 0 0 1 1 1v2.5H19a1 1 0 1 1 0 2h-2.5V19a1 1 0 1 1-2 0v-2.5H12a1 1 0 1 1 0-2h2.5V12a1 1 0 0 1 1-1"/></svg>
